src/Pure-Dark/16/symbolic/status/appointment-missed-symbolic.svg

<?xml version="1.0" encoding="UTF-8" standalone="no"?>
<svg
   width="16"
   height="16"
   version="1.1"
   id="svg3"
   sodipodi:docname="appointment-missed-symbolic.svg"
   inkscape:version="1.4.2 (ebf0e940d0, 2025-05-08)"
   xmlns:inkscape="http://www.inkscape.org/namespaces/inkscape"
   xmlns:sodipodi="http://sodipodi.sourceforge.net/DTD/sodipodi-0.dtd"
   xmlns="http://www.w3.org/2000/svg"
   xmlns:svg="http://www.w3.org/2000/svg">
  <defs
     id="defs3">
     <style
        id="current-color-scheme"
        type="text/css">
        .ColorScheme-Text { color:#f2f2f2; }
        .ColorScheme-NeutralText { color:#f67400; }
        .ColorScheme-PositiveText { color:#37c837; }
        .ColorScheme-NegativeText { color:#f44336; }
     </style>
  </defs>
  <sodipodi:namedview
     id="namedview3"
     pagecolor="#ffffff"
     bordercolor="#000000"
     borderopacity="0.25"
     inkscape:showpageshadow="2"
     inkscape:pageopacity="0.0"
     inkscape:pagecheckerboard="0"
     inkscape:deskcolor="#d1d1d1"
     inkscape:zoom="49.6875"
     inkscape:cx="8"
     inkscape:cy="8"
     inkscape:window-width="1920"
     inkscape:window-height="1010"
     inkscape:window-x="0"
     inkscape:window-y="0"
     inkscape:window-maximized="1"
     inkscape:current-layer="svg3" />
  <path
     id="path1"
     style="fill:currentColor"
     class="ColorScheme-Text"
     d="M 7.4628906,0 C 3.3352545,0.02042346 -5.0527139e-5,3.3723133 0,7.5 0,11.642136 3.3578644,15 7.5,15 c 0.4010053,1.58e-4 0.8013773,-0.03185 1.1972656,-0.0957 C 8.509097,14.607399 8.356363,14.289476 8.2421875,13.957031 7.995814,13.985502 7.748013,13.999848 7.5,14 3.9101491,14 1,11.089851 1,7.5 1,3.9101491 3.9101491,1 7.5,1 11.089851,1 14,3.9101491 14,7.5 c -7.7e-5,0.2486646 -0.01442,0.4971198 -0.04297,0.7441406 0.332356,0.1135575 0.650276,0.2656343 0.947266,0.453125 C 14.968154,8.3013773 15.000158,7.9010053 15,7.5 15,3.3578644 11.642136,0 7.5,0 c -0.01237,-3.0602437e-5 -0.02474,-3.0602437e-5 -0.037109,0 z m 3.0156254,4.0039062 c -0.02425,8.475e-4 -0.0484,0.00346 -0.07227,0.00781 v 0.00781 c -0.09714,0.025774 -0.184264,0.080224 -0.25,0.15625 L 7.5,6.8242188 5.84375,5.1757812 c -0.314,-0.514 -1.2005,0.3735 -0.6875,0.6875 l 2,2 c 0.1928152,0.1825437 0.4946848,0.1825437 0.6875,0 l 3,-3 c 0.329801,-0.3184361 0.09291,-0.8758171 -0.365234,-0.859375 z"
     sodipodi:nodetypes="ccccccssccccccccccccccccc" />
  <path
     id="path2"
     style="fill:currentColor"
     class="ColorScheme-NegativeText error"
     d="M 12.5 9 A 3.5 3.5 0 0 0 12.5 16 A 3.5 3.5 0 0 0 12.5 9 z M 12 10 L 13 10 L 13 13 L 12 13 L 12 10 z M 12 14 L 13 14 L 13 15 L 12 15 L 12 14 z " />
</svg>

<svg width="16" height="16" version="1.1" xmlns="http://www.w3.org/2000/svg">
 <path d="m10.478 4.0043a0.5 0.5 0 0 0-0.072 8e-3v8e-3a0.5 0.5 0 0 0-0.25 0.156l-2.656 2.648-1.657-1.648c-0.314-0.514-1.2 0.373-0.687 0.687l2 2a0.5 0.5 0 0 0 0.687 0l3-3a0.5 0.5 0 0 0-0.365-0.859z" fill="#f2f2f2"/>
 <path class="error" d="m12.5 9a3.5 3.5 0 1 0 0 7 3.5 3.5 0 0 0 0-7zm-0.5 1h1v3h-1zm0 4h1v1h-1z" fill="#f55f55" overflow="visible"/>
 <path d="m7.463 0a7.5 7.5 0 0 0-7.463 7.5 7.5 7.5 0 0 0 7.5 7.5 7.5 7.5 0 0 0 1.197-0.096 4.5 4.5 0 0 1-0.455-0.947 6.5 6.5 0 0 1-0.742 0.043 6.5 6.5 0 0 1-6.5-6.5 6.5 6.5 0 0 1 6.5-6.5 6.5 6.5 0 0 1 6.5 6.5 6.5 6.5 0 0 1-0.043 0.744 4.5 4.5 0 0 1 0.947 0.453 7.5 7.5 0 0 0 0.096-1.197 7.5 7.5 0 0 0-7.5-7.5 7.5 7.5 0 0 0-0.037 0z" fill="#f2f2f2"/>
</svg>
